src/icons/svg-colors/advantages4.svg

<svg width="52" height="49" viewBox="0 0 52 49" fill="none" xmlns="http://www.w3.org/2000/svg">
<path d="M48.3129 16.0605C49.7559 16.0605 50.9316 17.221 50.9316 18.6452V44.9133C50.9316 46.3375 49.7559 47.4979 48.3129 47.4979H3.68804C2.24508 47.4452 1.06934 46.2847 1.06934 44.8605V18.6452C1.06934 17.221 2.24508 16.0605 3.68804 16.0605H17.6367" fill="white"/>
<path d="M48.3124 48.5004H3.68756C1.65673 48.5004 0 46.8652 0 44.8608V18.6454C0 16.641 1.65673 15.0059 3.68756 15.0059H17.6362V17.1157H3.68756C2.83248 17.1157 2.13772 17.8015 2.13772 18.6454V44.9136C2.13772 45.7048 2.83248 46.3905 3.68756 46.3905H48.3124C49.1675 46.3905 49.8623 45.7048 49.8623 44.8608V18.6454C49.8623 17.8015 49.1675 17.1157 48.3124 17.1157V15.0059C50.3433 15.0059 52 16.641 52 18.6454V44.9136C52 46.8652 50.3433 48.5004 48.3124 48.5004Z" fill="#060F42"/>
<path d="M12.3058 32.5186H5.5442C4.96157 32.5186 4.48926 32.9909 4.48926 33.5735C4.48926 34.1561 4.96157 34.6284 5.5442 34.6284H12.3058C12.8885 34.6284 13.3608 34.1561 13.3608 33.5735C13.3608 32.9909 12.8885 32.5186 12.3058 32.5186Z" fill="#060F42"/>
<path d="M22.3531 38.3721H5.5442C4.96157 38.3721 4.48926 38.8444 4.48926 39.427C4.48926 40.0096 4.96157 40.482 5.5442 40.482H22.3531C22.9358 40.482 23.4081 40.0096 23.4081 39.427C23.4081 38.8444 22.9358 38.3721 22.3531 38.3721Z" fill="#060F42"/>
<path d="M23.4221 32.5186H16.6604C16.0778 32.5186 15.6055 32.9909 15.6055 33.5735C15.6055 34.1561 16.0778 34.6284 16.6604 34.6284H23.4221C24.0047 34.6284 24.477 34.1561 24.477 33.5735C24.477 32.9909 24.0047 32.5186 23.4221 32.5186Z" fill="#060F42"/>
<path d="M34.4846 32.5186H27.7229C27.1403 32.5186 26.668 32.9909 26.668 33.5735C26.668 34.1561 27.1403 34.6284 27.7229 34.6284H34.4846C35.0672 34.6284 35.5395 34.1561 35.5395 33.5735C35.5395 32.9909 35.0672 32.5186 34.4846 32.5186Z" fill="#060F42"/>
<path d="M45.6008 32.5186H38.8391C38.2565 32.5186 37.7842 32.9909 37.7842 33.5735C37.7842 34.1561 38.2565 34.6284 38.8391 34.6284H45.6008C46.1834 34.6284 46.6557 34.1561 46.6557 33.5735C46.6557 32.9909 46.1834 32.5186 45.6008 32.5186Z" fill="#060F42"/>
<path d="M11.3073 22.6016H6.86328C5.75871 22.6016 4.86328 23.497 4.86328 24.6016V26.4038C4.86328 27.5083 5.75871 28.4038 6.86328 28.4038H11.3073C12.4118 28.4038 13.3073 27.5083 13.3073 26.4038V24.6016C13.3073 23.497 12.4118 22.6016 11.3073 22.6016Z" fill="#FFCD1B"/>
<path d="M40.3499 5.29964C37.3571 4.77217 34.7918 3.50623 33.1885 1.97656C31.5852 3.50623 29.02 4.77217 26.0272 5.29964C24.1567 5.66887 22.3396 5.66887 20.7363 5.40513V15.5326C20.7363 23.3392 26.0272 26.715 33.1885 28.8249C40.4033 26.7678 45.6407 23.3392 45.6407 15.5326V5.45788C44.0909 5.66887 42.2204 5.66887 40.3499 5.29964Z" fill="white"/>
<path d="M33.1881 29.933L32.8674 29.8275C26.7215 28.0868 19.667 24.8692 19.667 15.5857V4.19231L20.8962 4.4033C22.446 4.61429 24.1562 4.61429 25.8664 4.2978C28.5385 3.82308 30.9435 2.66264 32.4933 1.23846L33.1881 0.5L33.9363 1.23846C35.4327 2.71538 37.8376 3.82308 40.5632 4.2978C42.2734 4.61429 43.9835 4.66703 45.5334 4.4033L46.7626 4.19231V15.5857C46.7626 24.8692 39.7081 28.0868 33.5087 29.8802L33.1881 29.933ZM21.8047 6.61868V15.5857C21.8047 21.7571 25.2251 25.3967 33.1881 27.7703C41.1511 25.3967 44.5714 21.7571 44.5714 15.5857V6.61868C43.1285 6.72418 41.632 6.61868 40.1356 6.35495C37.4101 5.88022 34.9517 4.77253 33.1881 3.4011C31.4244 4.82527 28.9126 5.88022 26.2405 6.35495C24.7441 6.61868 23.2477 6.72418 21.8047 6.61868Z" fill="#060F42"/>
<path d="M33.188 25.5546C26.5611 23.4975 23.9424 20.6491 23.9424 15.5854V8.72822C24.8509 8.67547 25.7594 8.56998 26.6145 8.41174C29.0729 7.93701 31.3175 7.09306 33.188 5.93262C35.0585 7.09306 37.3031 7.93701 39.7615 8.41174C40.67 8.56998 41.5786 8.67547 42.4336 8.72822V15.5326C42.4871 20.5964 39.8684 23.4447 33.188 25.5546Z" fill="#01579B"/>
<path d="M33.1883 20.8603C36.435 20.8603 39.067 18.2625 39.067 15.0581C39.067 11.8536 36.435 9.25586 33.1883 9.25586C29.9416 9.25586 27.3096 11.8536 27.3096 15.0581C27.3096 18.2625 29.9416 20.8603 33.1883 20.8603Z" fill="white"/>
<path d="M35.6994 12.8965L32.7066 16.6415L30.6758 15.3756" fill="white"/>
<path d="M34.0425 16.6442C33.4019 17.4253 32.2793 17.606 31.4259 17.0654L30.2264 16.3056C29.736 15.9949 29.5886 15.3465 29.8966 14.8544C30.208 14.3567 30.8656 14.2089 31.36 14.5254L31.5122 14.6229C32.0406 14.9611 32.7386 14.8492 33.1347 14.3627L34.182 13.0764C34.5507 12.6235 35.213 12.5468 35.6754 12.9034C36.1566 13.2745 36.2359 13.97 35.8505 14.4398L34.0425 16.6442Z" fill="#060F42"/>
</svg>

<svg xmlns="http://www.w3.org/2000/svg" width="52" height="49" viewBox="0 0 52 49"><g><g><g/><g><g><g><g><g><path fill="#fff" d="M48.314 16.06c1.443 0 2.618 1.16 2.618 2.585v26.268c0 1.424-1.176 2.584-2.618 2.584H3.689c-1.443-.052-2.619-1.213-2.619-2.637V18.645c0-1.425 1.176-2.585 2.619-2.585h13.948"/></g><g><path fill="#060f42" d="M48.312 48.505H3.688C1.657 48.505 0 46.868 0 44.864V18.65c0-2.005 1.657-3.64 3.688-3.64h13.948v2.11H3.688c-.856 0-1.55.686-1.55 1.53v26.268c0 .79.694 1.477 1.55 1.477h44.624c.855 0 1.55-.686 1.55-1.53V18.65c0-.844-.695-1.53-1.55-1.53v-2.11c2.031 0 3.688 1.635 3.688 3.64v26.268c0 1.951-1.657 3.586-3.688 3.586z"/></g></g><g><g/><g><path fill="#060f42" d="M12.307 32.52H5.545a1.055 1.055 0 0 0 0 2.11h6.762a1.055 1.055 0 0 0 0-2.11z"/></g></g><g><g/><g><path fill="#060f42" d="M22.354 38.37H5.544a1.055 1.055 0 0 0 0 2.11h16.81a1.055 1.055 0 0 0 0-2.11z"/></g></g><g><g/><g><path fill="#060f42" d="M23.427 32.52h-6.762a1.055 1.055 0 0 0 0 2.11h6.762a1.055 1.055 0 0 0 0-2.11z"/></g></g><g><g/><g><path fill="#060f42" d="M34.487 32.52h-6.762a1.055 1.055 0 0 0 0 2.11h6.762a1.055 1.055 0 0 0 0-2.11z"/></g></g><g><g/><g><path fill="#060f42" d="M45.597 32.52h-6.762a1.055 1.055 0 0 0 0 2.11h6.762a1.055 1.055 0 0 0 0-2.11z"/></g></g><g><path fill="#ffcd1b" d="M11.304 22.6H6.86a2 2 0 0 0-2 2v1.802a2 2 0 0 0 2 2h4.444a2 2 0 0 0 2-2V24.6a2 2 0 0 0-2-2z"/></g></g></g><g><g><path fill="#fff" d="M40.354 5.303c-2.993-.527-5.558-1.793-7.162-3.323-1.603 1.53-4.168 2.796-7.161 3.323-1.87.37-3.688.37-5.291.106v10.127c0 7.807 5.29 11.182 12.452 13.292 7.215-2.057 12.452-5.485 12.452-13.292V5.461c-1.55.211-3.42.211-5.29-.158z"/></g><g><path fill="#060f42" d="M33.191 29.933l-.32-.105c-6.147-1.741-13.201-4.959-13.201-14.242V4.192l1.23.211c1.549.211 3.26.211 4.97-.105 2.672-.475 5.076-1.635 6.626-3.06L33.191.5l.748.738c1.497 1.477 3.902 2.585 6.627 3.06 1.71.316 3.42.369 4.97.105l1.23-.21v11.393c0 9.283-7.055 12.5-13.254 14.294zM21.808 15.586c0 6.171 3.42 9.81 11.383 12.184 7.963-2.373 11.383-6.013 11.383-12.184V6.619c-1.443.105-2.939 0-4.435-.264-2.726-.475-5.184-1.582-6.948-2.954-1.764 1.424-4.275 2.48-6.948 2.954-1.496.264-2.992.37-4.435.264z"/></g></g><g><path fill="#01579b" d="M33.186 25.552c-6.627-2.057-9.246-4.905-9.246-9.97V8.727a21.751 21.751 0 0 0 2.672-.317c2.459-.475 4.703-1.319 6.574-2.479 1.87 1.16 4.115 2.004 6.573 2.48.909.157 1.817.263 2.672.316v6.804c.054 5.064-2.565 7.912-9.245 10.022z"/></g><g><path fill="#fff" d="M33.189 20.864c3.246 0 5.878-2.597 5.878-5.802 0-3.204-2.632-5.802-5.878-5.802-3.247 0-5.879 2.598-5.879 5.802 0 3.205 2.632 5.802 5.879 5.802z"/></g><g><g><path fill="#fff" d="M35.704 12.9l-2.993 3.745-2.031-1.266"/></g><g><path fill="#060f42" d="M34.043 16.641a2 2 0 0 1-2.617.422l-1.2-.76a1.055 1.055 0 0 1 1.134-1.78l.152.097a1.234 1.234 0 0 0 1.623-.26l1.047-1.286a1.077 1.077 0 1 1 1.669 1.363z"/></g></g></g></g></g></svg>
